rospo-light/16x16/actions/format-font-size-less.svg

<svg height="16" viewBox="0 0 16 16" width="16" xmlns="http://www.w3.org/2000/svg"><path d="m6 1-5 14h2.5l1.0625-3h3.5722656a1.0001 1.0001 0 0 1  .1582032-.207031l.7070312-.707031a1.0001 1.0001 0 0 1 1.414062 0l .585938.585937v-1.8789062a1.0001 1.0001 0 0 1  .130859-.4921876l-3.130859-8.3007812zm1 4 1.75 5h-3.5zm5 4.7929688v4.2929692l-2.2929688-2.292969-.7070312.707031 3.292969 3.292969.207031.207031.207031-.207031 3.292969-3.292969-.707031-.707031-2.292969 2.292969v-4.2929692z" fill="#5c616c"/></svg>

<?xml version="1.0" encoding="UTF-8" standalone="no"?>
<svg xmlns="http://www.w3.org/2000/svg" width="22" height="22" viewBox="0 0 22 22">
 <defs>
  <style type="text/css" id="current-color-scheme">
   .ColorScheme-Text { color:#5c616c; } .ColorScheme-Highlight { color:#5294e2; }
  </style>
 </defs>
 <path style="fill:currentColor;opacity:1" class="ColorScheme-Text" transform="translate(3 3)" d="M 6 1 L 1 15 L 3.5 15 L 4.5625 12 L 8.1347656 12 A 1.0001 1.0001 0 0 1 8.2929688 11.792969 L 9 11.085938 A 1.0001 1.0001 0 0 1 10.414062 11.085938 L 11 11.671875 L 11 9.7929688 A 1.0001 1.0001 0 0 1 11.130859 9.3007812 L 8 1 L 6 1 z M 7 5 L 8.75 10 L 5.25 10 L 7 5 z M 12 9.7929688 L 12 14.085938 L 9.7070312 11.792969 L 9 12.5 L 12.292969 15.792969 L 12.5 16 L 12.707031 15.792969 L 16 12.5 L 15.292969 11.792969 L 13 14.085938 L 13 9.7929688 L 12 9.7929688 z"/>
</svg>
